static/svgs/synced-realm-icon.svg

<?xml version="1.0" encoding="UTF-8"?>
<svg width="25px" height="31px" viewBox="0 0 25 31" version="1.1" xmlns="http://www.w3.org/2000/svg" xmlns:xlink="http://www.w3.org/1999/xlink">
    <defs>
        <linearGradient x1="50%" y1="0%" x2="50%" y2="100%" id="linearGradient-1">
            <stop stop-color="#F25192" offset="0%"></stop>
            <stop stop-color="#D351F2" offset="100%"></stop>
        </linearGradient>
        <linearGradient x1="0%" y1="0%" x2="101.999998%" y2="100.999999%" id="linearGradient-2">
            <stop stop-color="#3023AE" offset="0%"></stop>
            <stop stop-color="#C86DD7" offset="100%"></stop>
        </linearGradient>
        <path d="M0,31 L0,1 L8.931923,1 C8.9784475,0.982037606 9.0348986,0.982037606 9.1012763,1 L16.25,1 L16.2492924,5.88034029 L16.25,9.39999962 L24,9.39999962 L24,15.1348199 C24.010857,15.1353994 24.010857,18.2678949 24,24.5323066 L24,31 L0,31 Z M24,8 L18,8 L18,1 L24,8 Z" id="path-3"></path>
        <linearGradient x1="50%" y1="0%" x2="50%" y2="100%" id="linearGradient-4">
            <stop stop-color="#FFFFFF" offset="35.6026786%"></stop>
            <stop stop-color="#E3E3E3" offset="97.3632812%"></stop>
        </linearGradient>
        <path d="M8,12.225 L11.45,12.225 L11.575,13.7 C11.8750015,13.299998 12.2874974,12.9166685 12.8125,12.55 C13.3375026,12.1833315 14.0166625,12 14.85,12 C15.1666683,12 15.4374989,12.0166665 15.6625,12.05 C15.8875011,12.0833335 16.1083323,12.1416663 16.325,12.225 L15.75,15.4 C15.3833315,15.2833328 14.9500025,15.225 14.45,15.225 C13.5999958,15.225 12.9125026,15.4791641 12.3875,15.9875 C11.8624974,16.4958359 11.6,17.216662 11.6,18.15 L11.6,23.95 L8,23.95 L8,12.225 Z" id="path-5"></path>
        <filter x="-27.0%" y="-10.5%" width="154.1%" height="137.7%" filterUnits="objectBoundingBox" id="filter-6">
            <feMorphology radius="0.25" operator="dilate" in="SourceAlpha" result="shadowSpreadOuter1"></feMorphology>
            <feOffset dx="0" dy="1" in="shadowSpreadOuter1" result="shadowOffsetOuter1"></feOffset>
            <feGaussianBlur stdDeviation="0.5" in="shadowOffsetOuter1" result="shadowBlurOuter1"></feGaussianBlur>
            <feComposite in="shadowBlurOuter1" in2="SourceAlpha" operator="out" result="shadowBlurOuter1"></feComposite>
            <feColorMatrix values="0 0 0 0 0.349019608   0 0 0 0 0.337254902   0 0 0 0 0.619607843  0 0 0 1 0" type="matrix" in="shadowBlurOuter1"></feColorMatrix>
        </filter>
    </defs>
    <g id="Page-1" stroke="none" stroke-width="1" fill="none" fill-rule="evenodd">
        <g id="Artboard-Copy">
            <g id="paper" fill-rule="nonzero">
                <use fill="url(#linearGradient-1)" fill-rule="evenodd" xlink:href="#path-3"></use>
                <use fill="url(#linearGradient-2)" fill-rule="evenodd" xlink:href="#path-3"></use>
            </g>
            <g id="r">
                <use fill="black" fill-opacity="1" filter="url(#filter-6)" xlink:href="#path-5"></use>
                <use fill="#FFFFFF" fill-rule="evenodd" xlink:href="#path-5"></use>
                <use fill="url(#linearGradient-4)" fill-rule="evenodd" xlink:href="#path-5"></use>
                <path stroke-opacity="0.159646739" stroke="#000000" stroke-width="0.25" d="M11.673402,13.3808561 C11.956608,13.0577213 12.3125255,12.7467203 12.7409264,12.4475196 C13.2885625,12.0650437 13.9925879,11.875 14.85,11.875 C15.1723936,11.875 15.4491831,11.8920332 15.6808186,11.9263496 C15.9149477,11.9610354 16.1446802,12.0217194 16.3698724,12.1083318 L16.4479992,12.2472754 L15.8729992,15.4222754 L15.7120995,15.5191157 C15.3585925,15.4066362 14.9378664,15.35 14.45,15.35 C13.6311934,15.35 12.9750859,15.5925609 12.4744514,16.0773023 C11.9756216,16.5602962 11.725,17.2485111 11.725,18.15 L11.725,23.95 L11.6,24.075 L8,24.075 L7.875,23.95 L7.875,12.225 L8,12.1 L11.45,12.1 L11.5745535,12.2144446 L11.673402,13.3808561 Z"></path>
            </g>
        </g>
    </g>
</svg>

<svg width="25" height="31" xmlns="http://www.w3.org/2000/svg" xmlns:xlink="http://www.w3.org/1999/xlink">
  <g fill="none" fill-rule="evenodd">
    <defs>
      <linearGradient x1="50%" y1="0%" x2="50%" y2="100%" id="a">
        <stop stop-color="#F25192" offset="0%"/>
        <stop stop-color="#D351F2" offset="100%"/>
      </linearGradient>
      <linearGradient x1="0%" y1="0%" x2="102%" y2="101%" id="c">
        <stop stop-color="#3023AE" offset="0%"/>
        <stop stop-color="#C86DD7" offset="100%"/>
      </linearGradient>
      <path d="M0 31V1h8.932c.0464-.018.1029-.018.1693 0H16.25l-.0007 4.8803L16.25 9.4H24v5.7348c.0109.0006.0109 3.133 0 9.3975V31H0zM24 8h-6V1l6 7z" id="b"/>
      <linearGradient x1="50%" y1="0%" x2="50%" y2="100%" id="f">
        <stop stop-color="#FFF" offset="35.6027%"/>
        <stop stop-color="#E3E3E3" offset="97.3633%"/>
      </linearGradient>
      <path d="M8 12.225h3.45l.125 1.475c.3-.4.7125-.7833 1.2375-1.15.525-.3667 1.2042-.55 2.0375-.55.3167 0 .5875.0167.8125.05.225.0333.4458.0917.6625.175L15.75 15.4c-.3667-.1167-.8-.175-1.3-.175-.85 0-1.5375.2542-2.0625.7625-.525.5083-.7875 1.2292-.7875 2.1625v5.8H8V12.225z" id="e"/>
      <filter x="-27%" y="-10.5%" width="154.1%" height="137.7%" filterUnits="objectBoundingBox" id="d">
        <feMorphology radius=".25" operator="dilate" in="SourceAlpha" result="shadowSpreadOuter1"/>
        <feOffset dy="1" in="shadowSpreadOuter1" result="shadowOffsetOuter1"/>
        <feGaussianBlur stdDeviation=".5" in="shadowOffsetOuter1" result="shadowBlurOuter1"/>
        <feComposite in="shadowBlurOuter1" in2="SourceAlpha" operator="out" result="shadowBlurOuter1"/>
        <feColorMatrix values="0 0 0 0 0.349019608 0 0 0 0 0.337254902 0 0 0 0 0.619607843 0 0 0 1 0" in="shadowBlurOuter1"/>
      </filter>
    </defs>
    <g fill-rule="evenodd">
      <use fill="url(#a)" xlink:href="#b"/>
      <use fill="url(#c)" xlink:href="#b"/>
    </g>
    <use fill="#000" filter="url(#d)" xlink:href="#e"/>
    <use fill="#FFF" xlink:href="#e"/>
    <use fill="url(#f)" xlink:href="#e"/>
    <path stroke-opacity=".1596" stroke="#000" stroke-width=".25" d="M11.6734 13.3809c.2832-.3232.6391-.6342 1.0675-.9334.5477-.3825 1.2517-.5725 2.1091-.5725.3224 0 .5992.017.8308.0513.2341.0347.4639.0954.689.182l.0782.139-.575 3.175-.1609.0968c-.3535-.1125-.7742-.1691-1.2621-.1691-.8188 0-1.475.2426-1.9755.7273-.4989.483-.7495 1.1712-.7495 2.0727v5.8l-.125.125H8l-.125-.125V12.225L8 12.1h3.45l.1246.1144.0988 1.1665z"/>
  </g>
</svg>
